school/img/country/CEU.svg

<svg width="13" height="12" viewBox="0 0 13 12" fill="none" xmlns="http://www.w3.org/2000/svg">
<rect width="13" height="12" rx="2" fill="white"/>
<mask id="mask0" mask-type="alpha" maskUnits="userSpaceOnUse" x="0" y="0" width="13" height="12">
<rect width="13" height="12" rx="2" fill="white"/>
</mask>
<g mask="url(#mask0)">
<rect width="13" height="12" fill="#19BFBF"/>
<path fill-rule="evenodd" clip-rule="evenodd" d="M7.78397 10.4593L7.47055 10.0543C7.44284 10.0185 7.42272 9.97738 7.41141 9.93353L7.14917 8.91687C7.13143 8.84807 7.06937 8.79999 6.99832 8.79999C6.90041 8.79999 6.82677 8.88924 6.84536 8.98537L7.09412 10.2712C7.10995 10.3531 7.08978 10.4378 7.03877 10.5037C6.92271 10.6537 6.69629 10.6537 6.58023 10.5037L6.56471 10.4836C6.52275 10.4294 6.49998 10.3628 6.49998 10.2942V9.66223C6.49998 9.62109 6.49236 9.58031 6.47752 9.54195L6.27288 9.01304C6.2232 8.88464 6.09969 8.79999 5.96201 8.79999H5.3602C5.29602 8.79999 5.23321 8.81852 5.1793 8.85335L4.75218 9.12933C4.68187 9.17477 4.63123 9.24499 4.61032 9.32605L4.36583 10.2739C4.34492 10.355 4.29427 10.4252 4.22396 10.4706L3.89517 10.6831C3.78506 10.7542 3.64347 10.7542 3.53336 10.6831L3.24764 10.4985C3.15261 10.4371 3.09521 10.3317 3.09521 10.2185V9.13332C3.09521 8.94923 3.24445 8.79999 3.42855 8.79999H3.69045C3.87455 8.79999 4.02379 8.65075 4.02379 8.46666V8.04229C4.02379 8.0142 4.02734 7.98623 4.03435 7.95903L4.26881 7.05007C4.30678 6.90286 4.43954 6.79999 4.59157 6.79999H4.85404C4.91822 6.79999 4.98103 6.78146 5.03494 6.74663L5.48882 6.45335C5.54273 6.41852 5.60555 6.39999 5.66973 6.39999H5.89233C6.05698 6.39999 6.19045 6.26652 6.19045 6.10187V6.08177C6.19045 6.02876 6.20806 5.97724 6.2405 5.93531C6.35452 5.78797 6.58574 5.82166 6.65297 5.99542L6.72707 6.18694C6.77675 6.31534 6.90026 6.39999 7.03795 6.39999H7.47981C7.63184 6.39999 7.76461 6.29712 7.80258 6.14991L7.98309 5.45007C8.02106 5.30286 8.15383 5.19999 8.30586 5.19999H8.46664C8.5771 5.19999 8.66664 5.11045 8.66664 4.99999C8.66664 4.88953 8.5771 4.79999 8.46664 4.79999H8.35712C8.18617 4.79999 8.0476 4.66141 8.0476 4.49047V4.06223C8.0476 4.02109 8.05521 3.98031 8.07005 3.94195L8.30164 3.34338C8.33607 3.25439 8.32142 3.15386 8.26303 3.07839C8.15398 2.93747 7.94122 2.93747 7.83217 3.07839L7.49826 3.5099C7.45307 3.5683 7.42855 3.64006 7.42855 3.7139V4.35769C7.42855 4.38578 7.425 4.41375 7.41798 4.44095L7.16636 5.41648C7.1385 5.52451 7.04107 5.59999 6.92951 5.59999C6.85381 5.59999 6.78238 5.56495 6.73606 5.50508L6.53838 5.24961C6.51348 5.21745 6.49998 5.17792 6.49998 5.13724C6.49998 4.99178 6.33889 4.90408 6.21671 4.98302L6.0873 5.06664C5.9706 5.14205 5.81559 5.11556 5.73056 5.00567L5.64112 4.89008C5.59593 4.83168 5.57141 4.75993 5.57141 4.68608V4.1139C5.57141 4.04006 5.59593 3.9683 5.64112 3.9099L6.19045 3.19999L7.06634 2.06808C7.1009 2.02342 7.14623 1.98827 7.19809 1.96593L7.98446 1.62719C8.02611 1.60924 8.07099 1.59999 8.11634 1.59999H8.4382C8.57588 1.59999 8.69939 1.68464 8.74908 1.81304L8.95371 2.34195C8.96855 2.38031 8.97617 2.42109 8.97617 2.46223V3.48608C8.97617 3.55993 9.00069 3.63168 9.04588 3.69008L9.18576 3.87085C9.2488 3.95232 9.27064 4.05836 9.24491 4.1581L9.02791 4.99941C8.99622 5.12224 9.037 5.2524 9.1331 5.3352L9.90474 5.99999L10.2698 6.2359C10.4139 6.329 10.4638 6.51624 10.3852 6.66869L9.94183 7.52808C9.91746 7.57534 9.90474 7.62773 9.90474 7.6809V8.58064C9.90474 8.71375 9.82554 8.83411 9.70328 8.88677L9.10468 9.14463C9.02248 9.18004 8.95797 9.24702 8.92568 9.33049L8.68417 9.95469C8.67255 9.98473 8.65663 10.0129 8.63692 10.0384L8.31122 10.4593C8.17777 10.6318 7.91742 10.6318 7.78397 10.4593ZM5.26188 10.4C5.43283 10.4 5.57141 10.2209 5.57141 9.99999C5.57141 9.77908 5.43283 9.59999 5.26188 9.59999C5.09094 9.59999 4.95236 9.77908 4.95236 9.99999C4.95236 10.2209 5.09094 10.4 5.26188 10.4ZM4.33329 5.19999C4.33329 5.42091 4.19471 5.59999 4.02376 5.59999C3.85282 5.59999 3.71424 5.42091 3.71424 5.19999C3.71424 4.97908 3.85282 4.79999 4.02376 4.79999C4.19471 4.79999 4.33329 4.97908 4.33329 5.19999Z" fill="white"/>
<path fill-rule="evenodd" clip-rule="evenodd" d="M4.62032 5.25804C4.63516 5.21968 4.64278 5.1789 4.64278 5.13776V4.86224C4.64278 4.8211 4.63516 4.78032 4.62032 4.74196L4.46579 4.34257C4.40197 4.17761 4.52369 4 4.70057 4V4C4.8396 4 4.9523 4.1127 4.9523 4.25173V5.13776C4.9523 5.1789 4.95991 5.21968 4.97476 5.25804L5.09429 5.56699C5.17496 5.7755 5.02111 6 4.79754 6V6C4.57397 6 4.42011 5.7755 4.50078 5.56699L4.62032 5.25804Z" fill="white"/>
</g>
</svg>

<svg width="13" height="12" fill="none" xmlns="http://www.w3.org/2000/svg"><rect width="13" height="12" rx="2" fill="#fff"/><mask id="a" maskUnits="userSpaceOnUse" x="0" y="0" width="13" height="12"><rect width="13" height="12" rx="2" fill="#fff"/></mask><g mask="url(#a)"><path fill="#19BFBF" d="M0 0h13v12H0z"/><path fill-rule="evenodd" clip-rule="evenodd" d="M7.784 10.46l-.313-.406a.333.333 0 01-.06-.12L7.15 8.917a.156.156 0 00-.304.068l.25 1.286a.29.29 0 01-.515.233l-.015-.02a.31.31 0 01-.065-.19v-.632a.333.333 0 00-.022-.12l-.205-.529a.333.333 0 00-.311-.213H5.36a.333.333 0 00-.18.053l-.428.276a.333.333 0 00-.142.197l-.244.948a.333.333 0 01-.142.197l-.329.212a.334.334 0 01-.362 0l-.285-.184a.333.333 0 01-.153-.28V9.133c0-.184.15-.333.334-.333h.261c.185 0 .334-.15.334-.333v-.425a.33.33 0 01.01-.083l.235-.909a.333.333 0 01.323-.25h.262a.333.333 0 00.18-.053l.455-.294a.333.333 0 01.18-.053h.223a.298.298 0 00.298-.298v-.02a.24.24 0 01.463-.087l.074.192c.05.128.173.213.311.213h.442a.333.333 0 00.323-.25l.18-.7a.333.333 0 01.323-.25h.16a.2.2 0 100-.4h-.109a.31.31 0 01-.31-.31v-.428c0-.04.008-.082.023-.12l.232-.599a.272.272 0 00-.47-.265l-.334.432a.333.333 0 00-.07.204v.644a.333.333 0 01-.01.083l-.252.975a.245.245 0 01-.43.09l-.198-.256a.184.184 0 01-.038-.113.184.184 0 00-.283-.154l-.13.084a.267.267 0 01-.356-.061l-.09-.116a.333.333 0 01-.07-.204v-.572c0-.074.025-.146.07-.204l.55-.71.875-1.132a.333.333 0 01.132-.102l.786-.339a.333.333 0 01.132-.027h.322c.138 0 .261.085.311.213l.205.529c.015.038.022.08.022.12v1.024c0 .074.025.146.07.204l.14.18a.333.333 0 01.059.288L9.028 5a.333.333 0 00.105.336L9.905 6l.365.236c.144.093.194.28.115.433l-.443.86a.333.333 0 00-.037.152v.9c0 .133-.08.253-.202.306l-.598.258a.333.333 0 00-.18.185l-.24.625a.334.334 0 01-.048.083l-.326.421a.333.333 0 01-.527 0zm-2.522-.06c.17 0 .31-.18.31-.4 0-.22-.14-.4-.31-.4-.171 0-.31.18-.31.4 0 .22.139.4.31.4zm-.929-5.2c0 .22-.138.4-.31.4-.17 0-.309-.18-.309-.4 0-.22.139-.4.31-.4.17 0 .31.18.31.4z" fill="#fff"/><path fill-rule="evenodd" clip-rule="evenodd" d="M4.62 5.258a.333.333 0 00.023-.12v-.276a.333.333 0 00-.023-.12l-.154-.4a.252.252 0 11.487-.09v.886c0 .04.007.082.022.12l.12.309a.318.318 0 11-.594 0l.12-.309z" fill="#fff"/></g></svg>
